site/static/images/icons/arrow-right.svg

<svg fill="none" height="16" viewBox="0 0 16 16" width="16" xmlns="http://www.w3.org/2000/svg"><path clip-rule="evenodd" d="m8.21967 2.96967c.29289-.29289.76777-.29289 1.06066 0l4.24997 4.25c.2929.29289.2929.76777 0 1.06066l-4.24997 4.24997c-.29289.2929-.76777.2929-1.06066 0s-.29289-.7677 0-1.0606l2.96963-2.9697h-7.4393c-.41421 0-.75-.33579-.75-.75s.33579-.75.75-.75h7.4393l-2.96963-2.96967c-.29289-.29289-.29289-.76777 0-1.06066z" fill="#ff659d" fill-rule="evenodd"/></svg>

<svg width="16" height="16" viewBox="0 0 16 16" fill="none" xmlns="http://www.w3.org/2000/svg">
<path fill-rule="evenodd" clip-rule="evenodd" d="M8.21967 2.96967C8.51256 2.67678 8.98744 2.67678 9.28033 2.96967L13.5303 7.21967C13.8232 7.51256 13.8232 7.98744 13.5303 8.28033L9.28033 12.5303C8.98744 12.8232 8.51256 12.8232 8.21967 12.5303C7.92678 12.2374 7.92678 11.7626 8.21967 11.4697L11.1893 8.5H3.75C3.33579 8.5 3 8.16421 3 7.75C3 7.33579 3.33579 7 3.75 7H11.1893L8.21967 4.03033C7.92678 3.73744 7.92678 3.26256 8.21967 2.96967Z" fill="#FF659D"/>
</svg>
